!!!!SEGMENT: pl-cz--iii-47--001-008_bulakowski-stefan--msza-as-sanctus.krn
!!!cenid: 18xx:699
!!!COM: Bułakowski, Stefan
!!!COM-rismID: pe30085804
!!!CDT: 1784-1852
!!!CNT: Polish
!!!OPR: Msza As
!!!OTL: Sanctus
!!!OMV: 008
!!!PDT:
!!!AGN: Sacred; Mass
!!!YEC: Copyright 2022 Narodowy Instytut Fryderyka Chopina (https://polishscores.org)
!!!YEM: License CC-BY-4.0 (https://creativecommons.org/licenses/by/4.0)
!!!SMS-siglum: PL-CZ
!!!SMS-shelfmark: III-47
!!!SMS-shelfwork: 001-008 M
!!!SMS-variant:
!!!SMS-altvar:
!!!NIFC-rismSourceID: 300000053
!!!NIFC-rismChildID: 300000053
!!!NIFC-islandoraID: pl-cz:38687
!!!URL-pdf-islandora: https://repozytorium.nifc.pl/islandora/object/pl-cz%3A38687/datastream/PDF/view
!!!URL-scan: https://polish.musicsources.pl/pl/lokalizacje/galeria/rekopisy/6939/1 @EN{Scan on Polish Music Sources Website} @PL{Skany w portalu Dziedzictwo Muzyki Polskiej w otwartym dostępie}
!!!IIIF:
!!!ONB-nifc: UWAGA: części Mszy: Kyrie, Gloria, Justus ut palma, Credo, Et incarnatus, Et resurrexit, Veritas mea, Sanctus, Pleni, Benedictus, Agnus Dei, Dona nobis
!!!AIN: 2 clars 2 cor 1 empty 2 fagot 2 tenor 1 tromt
!!!key:
**kern	**text	**dynam	**kern	**text	**dynam	**kern	**text	**dynam	**kern	**kern	**kern	**kern	**dynam	**kern	**dynam	**kern	**dynam	**kern	**dynam
*group3	*	*	*group3	*	*	*group3	*	*	*group2	*group2	*group2	*group1	*	*group1	*	*group1	*	*group1	*
*part10	*	*	*part9	*	*	*part8	*	*	*part7	*part6	*part5	*part4	*	*part3	*	*part2	*	*part1	*
*staff10	*	*	*staff9	*	*	*staff8	*	*	*staff7	*staff6	*staff5	*staff4	*	*staff3	*	*staff2	*	*staff1	*
*Iempty	*	*	*Itenor	*	*	*Itenor	*	*	*Itromt	*Icor	*Icor	*Ifagot	*	*Ifagot	*	*Iclars	*	*Iclars	*
*I"Baſso.	*	*	*I"Tenore 2do	*	*	*I"Tenore 1mo	*	*	*I"Trombone	*I"Corno. 2do in As.	*I"Corno 1mo in As.	*I"Fagotto. 2do	*	*I"Fagotto 1mo	*	*I"Clarinetto. 2do in B.	*	*I"Clarinetto. 1mo in B.	*
*I'B	*	*	*I'T II	*	*	*I'T I	*	*	*I'trb	*I'cor II	*I'cor I	*I'fag II	*	*I'fag I	*	*I'cl II	*	*I'cl I	*
*clefF4	*	*	*clefC4	*	*	*clefC4	*	*	*clefF4	*clefG2	*clefG2	*clefF4	*	*clefF4	*	*clefG2	*	*clefG2	*
*	*	*	*	*	*	*	*	*	*	*ITrd5c9	*ITrd5c9	*	*	*	*	*ITrd1c2	*	*ITrd1c2	*
*k[b-e-]	*	*	*k[b-e-]	*	*	*k[b-e-]	*	*	*k[b-e-]	*k[b-e-a-]	*k[b-e-a-]	*k[b-e-]	*	*k[b-e-]	*	*k[b-e-]	*	*k[b-e-]	*
*B-:	*	*	*B-:	*	*	*B-:	*	*	*B-:	*B-:	*B-:	*B-:	*	*B-:	*	*B-:	*	*B-:	*
*	*	*	*	*	*	*	*	*	*	*	*	*	*	*	*	*	*	*	*
*M4/4	*	*	*M4/4	*	*	*M4/4	*	*	*M4/4	*M4/4	*M4/4	*M4/4	*	*M4/4	*	*M4/4	*	*M4/4	*
*met(c)	*	*	*met(c)	*	*	*met(c)	*	*	*met(c)	*met(c)	*met(c)	*met(c)	*	*met(c)	*	*met(c)	*	*met(c)	*
=1	=1	=1	=1	=1	=1	=1	=1	=1	=1	=1	=1	=1	=1	=1	=1	=1	=1	=1	=1
*2\right	*	*	*2\right	*	*	*2\right	*	*	*2\right	*2\right	*2\right	*2\right	*	*2\right	*	*2\right	*	*2\right	*
!LO:TX:a:B:t=Sanctus	!	!	!LO:TX:a:B:t=Sanctus	!	!	!	!	!	!	!	!LO:TX:a:t=P:problem=dopisane ołówkiem "in Es Corno"	!	!	!	!	!	!	!	!
!	!	!	!LO:TX:a:t=P:problem=niejednoznaczny zapis łuk/ligatura	!	!	!LO:TX:a:B:t=Sanctus	!	!	!LO:TX:a:B:t=Sanctus	!LO:TX:a:t=P:problem=brak znaków przykluczowych	!LO:TX:a:t=P:problem=brak znaków przykluczowych	!LO:TX:a:B:t=Sanctus	!LO:DY:b	!LO:TX:a:B:t=Sanctus	!LO:DY:b:t=p.	!LO:TX:a:B:t=Sanctus	!	!LO:TX:a:B:t=Sanctus	!
!LO:TX:a:B:t=Adagio	!	!LO:DY:a	!LO:TX:a:B:t=Adagio	!	!	!LO:TX:a:B:t=Adagio	!	!	!LO:TX:a:B:t=Adagio	!LO:TX:a:B:t=Adagio	!LO:TX:a:B:t=Adagio	!LO:TX:a:B:t=Adagio	!	!LO:TX:a:B:t=Adagio.	!	!LO:TX:a:B:t=Adagio.	!	!LO:TX:a:B:t=Adagio	!
!	!	!	!	!	!	!	!	!LO:DY:b	!	!LO:TX:a:B:t=Sanctus	!LO:TX:a:B:t=Sanctus	!	!	!	!	!	!	!	!
4.BB-/	ſan-	p	(4.D/	ſan-	.	(4.B-\	ſan-	p	4.BB-/	4.B-/	4.f\	4.B-\	p	4.d\	p	(4.f/	.	(4.b-\	.
8BB-/	.	.	8D/)	.	.	8F\)	.	.	8BB-/	8B-/	8f\	8B-\	.	8d\	.	8d/)	.	8f\)	.
4BB-;/	-ctus	.	4D;/	-ctus	.	4F;/	-ctus	.	4BB-;/	8B-;/	8f;\	4B-;\	.	4d;\	.	4d;/	.	4f;/	.
.	.	.	.	.	.	.	.	.	.	8r	8r	.	.	.	.	.	.	.	.
4r	.	.	4r	.	.	4r	.	.	4r	4r	4r	4r	.	4r	.	4r	.	32r	.
.	.	.	.	.	.	.	.	.	.	.	.	.	.	.	.	.	.	(32B-/LLL	.
.	.	.	.	.	.	.	.	.	.	.	.	.	.	.	.	.	.	32F/	.
.	.	.	.	.	.	.	.	.	.	.	.	.	.	.	.	.	.	32B-/JJJ	.
.	.	.	.	.	.	.	.	.	.	.	.	.	.	.	.	.	.	32d/LLL	.
.	.	.	.	.	.	.	.	.	.	.	.	.	.	.	.	.	.	32f/	.
.	.	.	.	.	.	.	.	.	.	.	.	.	.	.	.	.	.	32b-/	.
.	.	.	.	.	.	.	.	.	.	.	.	.	.	.	.	.	.	32cc/JJJ)	.
=2	=2	=2	=2	=2	=2	=2	=2	=2	=2	=2	=2	=2	=2	=2	=2	=2	=2	=2	=2
(4.F\	ſan-	.	(4.B-\	ſan-	.	(4.d\	ſan-	.	4.BB-/	4.B-/	4.f\	4.BB-/	.	4.B-\	.	(4.b-\	.	(4.dd\	.
8D\)	.	.	8F\)	.	.	8B-\)	.	.	8BB-/	8B-/	8f\	8BB-/	.	8B-\	.	8f\)	.	8b-\)	.
4D;\	-ctus	.	4F;/	-ctus	.	4B-;\	-ctus	.	4BB-;/	8B-;/	8f;\	4BB-;/	.	4B-;\	.	4f;\	.	4b-;\	.
.	.	.	.	.	.	.	.	.	.	8r	8r	.	.	.	.	.	.	.	.
4r	.	.	4r	.	.	4r	.	.	4r	4r	4r	4r	.	4r	.	4r	.	32r	.
.	.	.	.	.	.	.	.	.	.	.	.	.	.	.	.	.	.	(32d/LLL	.
.	.	.	.	.	.	.	.	.	.	.	.	.	.	.	.	.	.	32c#X/	.
.	.	.	.	.	.	.	.	.	.	.	.	.	.	.	.	.	.	32d/JJJ	.
.	.	.	.	.	.	.	.	.	.	.	.	.	.	.	.	.	.	32f/LLL	.
.	.	.	.	.	.	.	.	.	.	.	.	.	.	.	.	.	.	32b-/	.
.	.	.	.	.	.	.	.	.	.	.	.	.	.	.	.	.	.	32dd/	.
.	.	.	.	.	.	.	.	.	.	.	.	.	.	.	.	.	.	32ee-/JJJ)	.
!	!	!	!	!	!	!	!	!	!	!	!	!	!	!	!	!	!	!LO:LB:g=original	!
=3	=3	=3	=3	=3	=3	=3	=3	=3	=3	=3	=3	=3	=3	=3	=3	=3	=3	=3	=3
(4.B-\	ſan-	.	(4.d\	ſan-	.	(4.f\	ſan-	.	4.BB-/	4.B-/	4.f\	4.F\	.	4.d\	.	(4.dd\	.	(4.ff\	.
8BB-/)	.	.	8B-\)	.	.	8d\)	.	.	8BB-/	8B-/	8f\	8BB-/	.	8B-\	.	8b-\)	.	8dd\)	.
2BB-;/	-ctus	.	2B-;\	-ctus	.	2d;\	-ctus	.	2BB-;/	2B-;/	2f;\	2BB-;/	.	2B-\	.	2b-;\	.	2dd;\	.
!	!	!	!LO:LB:g=original	!	!	!LO:LB:g=original	!	!	!	!LO:LB:g=original	!	!LO:LB:g=original	!	!	!	!	!	!	!
=4	=4	=4	=4	=4	=4	=4	=4	=4	=4	=4	=4	=4	=4	=4	=4	=4	=4	=4	=4
4F\	do-	.	4A\	do-	.	4c\	do-	.	4F\	4f\	4f\	4F\	.	4F\	.	4a\	.	4cc\	.
8F\	-mi-	.	8B-\	-mi-	.	8d\	-mi-	.	8F\L	8f\L	8f\L	8F\L	.	8F\L	.	8b-\L	.	8dd\L	.
8F\	-nus	.	8B-\	-nus	.	8d\	-nus	.	8F\J	8f\J	8f\J	8F\J	.	8F\J	.	8b-\J	.	8dd\J	.
4F\	De-	.	4c\	De-	.	4e-\	De-	.	4F\	4f\	4f\	4F\	.	4F\	.	4cc\	.	4ee-\	.
4F\	-us	.	4d\	-us	.	4f\	-us	.	4F\	4f\	4f\	4F\	.	4F\	.	4dd\	.	4ff\	.
!LO:LB:g=original	!	!	!	!	!	!	!	!	!	!	!LO:LB:g=original	!	!	!LO:LB:g=original	!	!LO:LB:g=original	!	!	!
=5	=5	=5	=5	=5	=5	=5	=5	=5	=5	=5	=5	=5	=5	=5	=5	=5	=5	=5	=5
4d\	do-	.	4F/	do-	.	4B-\	do-	.	4D\	4B-\	4f\	4D\	.	4d\	.	4f/	.	4b-\	.
8c\	-mi-	.	8A\	-mi-	.	8c\	-mi-	.	4C\	8f\L	8f\L	8C\L	.	8c\L	.	8a\L	.	8cc\L	.
8c\	-nus	.	8A\	-nus	.	8c\	-nus	.	.	8f\J	8f\J	8C\J	.	8c\J	.	8a\J	.	8cc\J	.
4B-\	De-	.	4B-\	De-	.	4d\	De-	.	4BB-\	4B-\	4f\	4BB-/	.	4B-\	.	4b-\	.	4dd\	.
4E-\	-us	.	4c\	-us	.	4e-\	-us	.	4E-\	4e-\	4f\	4E-\	.	4G\	.	4cc\	.	4ee-\	.
=6	=6	=6	=6	=6	=6	=6	=6	=6	=6	=6	=6	=6	=6	=6	=6	=6	=6	=6	=6
!LO:TX:a:t=P:problem=niejednoznaczny zapis łuk/ligatura	!	!	!	!	!	!	!	!	!	!	!	!	!	!	!	!	!	!	!
(4.F\	ſa-	.	4.A\	sa-	.	4.c\	sa-	.	4.F\	4.f\	4.f\	4.F\	.	4.A\	.	4.a\	.	4.cc\	.
8F\)	-ba-	.	8B-\	-ba-	.	8d\	-ba-	.	8F\	8f\	8f\	8F\	.	8A\	.	8b-\	.	8dd\	.
2F;\	-oth	.	2A;\	-oth	.	2c;\	-oth	.	2F;\	2f;\	2f;\	2F;\	.	2A;\	.	2a;\	.	2cc;\	.
!	!	!	!	!	!	!LO:LB:g=original	!	!	!LO:LB:g=original	!	!	!	!	!	!	!	!	!	!
=7	=7	=7	=7	=7	=7	=7	=7	=7	=7	=7	=7	=7	=7	=7	=7	=7	=7	=7	=7
!	!	!	!LO:TX:a:t=P:problem=niejednoznaczny zapis łuk/ligatura	!	!	!	!	!	!	!	!	!	!	!	!	!	!	!	!
4.BB-/	ſan-	.	(4.D/	ſan-	.	(4.B-\	ſan-	.	4.BB-/	4.B-/	4.f\	4.B-\	.	4.d\	.	4.d/	.	(4.b-\	.
8BB-/	.	.	8D/)	.	.	8F\)	.	.	8BB-/	8B-/	8f\	8B-\	.	8d\	.	8d/	.	8f\)	.
4BB-;/	-ctus	.	4D;/	-ctus	.	4F;/	-ctus	.	4BB-;/	8B-;/	8f;\	4B-;\	.	4d;\	.	4d;/	.	4f;/	.
.	.	.	.	.	.	.	.	.	.	8r	8r	.	.	.	.	.	.	.	.
4r	.	.	4r	.	.	4r	.	.	4r	4r	4r	4r	.	4r	.	4r	.	32r	.
.	.	.	.	.	.	.	.	.	.	.	.	.	.	.	.	.	.	(32B-/LLL	.
.	.	.	.	.	.	.	.	.	.	.	.	.	.	.	.	.	.	32F/	.
.	.	.	.	.	.	.	.	.	.	.	.	.	.	.	.	.	.	32B-/JJJ	.
.	.	.	.	.	.	.	.	.	.	.	.	.	.	.	.	.	.	32d/LLL	.
.	.	.	.	.	.	.	.	.	.	.	.	.	.	.	.	.	.	32f/	.
.	.	.	.	.	.	.	.	.	.	.	.	.	.	.	.	.	.	32b-/	.
.	.	.	.	.	.	.	.	.	.	.	.	.	.	.	.	.	.	32cc/JJJ)	.
!	!	!	!LO:LB:g=original	!	!	!	!	!	!	!	!	!	!	!	!	!	!	!LO:LB:g=original	!
=8	=8	=8	=8	=8	=8	=8	=8	=8	=8	=8	=8	=8	=8	=8	=8	=8	=8	=8	=8
(4.B-\	ſan-	.	(4.B-\	ſan-	.	(4.d\	ſan-	.	4.BB-/	4.B-/	4.f\	4.B-\	.	4.d\	.	(4.b-\	.	(4.dd\	.
8D\)	.	.	8F\)	.	.	8B-\)	.	.	8BB-/	8B-/	8f\	8B-\	.	8d\	.	8f\)	.	8b-\)	.
4D;\	-ctus	.	4F;/	-ctus	.	4B-;\	-ctus	.	4BB-;/	8B-;/	8f;\	4B-;\	.	4d;\	.	4f;/	.	4b-;\	.
.	.	.	.	.	.	.	.	.	.	8r	8r	.	.	.	.	.	.	.	.
4r	.	.	4r	.	.	4r	.	.	4r	4r	4r	4r	.	4r	.	4r	.	32r	.
.	.	.	.	.	.	.	.	.	.	.	.	.	.	.	.	.	.	(32d/LLL	.
!	!	!	!	!	!	!	!	!	!	!	!	!	!	!	!	!	!	!LO:SIC:o=32c/:v	!
.	.	.	.	.	.	.	.	.	.	.	.	.	.	.	.	.	.	32d#	.
.	.	.	.	.	.	.	.	.	.	.	.	.	.	.	.	.	.	32d/JJJ	.
.	.	.	.	.	.	.	.	.	.	.	.	.	.	.	.	.	.	32f/LLL	.
.	.	.	.	.	.	.	.	.	.	.	.	.	.	.	.	.	.	32b-/	.
.	.	.	.	.	.	.	.	.	.	.	.	.	.	.	.	.	.	32dd/	.
.	.	.	.	.	.	.	.	.	.	.	.	.	.	.	.	.	.	32ee-/JJJ)	.
!	!	!	!	!	!	!	!	!	!	!LO:LB:g=original	!	!LO:LB:g=original	!	!	!	!	!	!	!
=9	=9	=9	=9	=9	=9	=9	=9	=9	=9	=9	=9	=9	=9	=9	=9	=9	=9	=9	=9
!	!	!	!	!	!LO:DY:b	!	!	!LO:DY:b	!	!LO:TX:a:t=2	!	!	!LO:DY:b	!	!LO:DY:b	!	!LO:DY:b	!	!LO:DY:b
4d\	do-	.	4d\	do-	f	4f\	do-	f	2r	0r	4f\	4d\	f	4d\	f	4dd\	f	4ff\	f
8c\	-mi-	.	8d\	-mi-	.	8f#X\	-mi-	.	.	.	8f#X\L	8c\L	.	8c\L	.	8dd\L	.	8ff#X\L	.
8c\	-nus	.	8d\	-nus	.	8f#\	-nus	.	.	.	8f#\J	8c\J	.	8c\J	.	8dd\J	.	8ff#\J	.
4Bn\	De-	.	4d\	De-	.	4g\	De-	.	4r	.	4g\	4Bn\	.	2Bn\	.	4dd\	.	4gg\	.
4G\	-us	.	4d\	-us	.	4fn\	-us	.	4GG/	.	4f\	4G\	.	.	.	4dd\	.	4ff\	.
!LO:LB:g=original	!	!	!	!	!	!	!	!	!	!	!LO:LB:g=original	!	!	!LO:LB:g=original	!	!LO:LB:g=original	!	!	!
=10	=10	=10	=10	=10	=10	=10	=10	=10	=10	=10	=10	=10	=10	=10	=10	=10	=10	=10	=10
4c\	do-	.	4c\	do-	.	4e-\	do-	.	4C/	.	4e-\	4c\	.	4c\	.	4cc\	.	4ee-\	.
8B-X\	-mi-	.	8c\	-mi-	.	8en\	-mi-	.	4r	.	8eX\L	8B-X\L	.	8B-X\L	.	8cc\L	.	8eeX\L	.
8B-\	-nus	.	8c\	-nus	.	8e\	-nus	.	.	.	8e\J	8B-\J	.	8B-\J	.	8cc\J	.	8ee\J	.
4A\	De-	.	4c\	De-	.	4f\	De-	.	4r	.	4f\	4A\	.	2A\	.	4cc\	.	4ff\	.
4F\	-us	.	4c\	-us	.	4e-X\	-us	.	4F\	.	4e-\	4F\	.	.	.	4cc\	.	4ee-\	.
!	!	!	!	!	!	!LO:LB:g=original	!	!	!	!	!	!	!	!	!	!	!	!	!
=11	=11	=11	=11	=11	=11	=11	=11	=11	=11	=11	=11	=11	=11	=11	=11	=11	=11	=11	=11
4BB-/	De-	.	4B-\	De-	.	4d\	De-	.	4BB-/	4f\	4f\	4BB-/	.	2B-\	.	4b-\	.	4dd\	.
4B-\	-us	.	(8A\L	-us	.	(8c\L	-us	.	4BB-/	8f\L	8f\L	4B-\	.	.	.	8a\L	.	8cc\L	.
.	.	.	8B-\J)	.	.	8d\J)	.	.	.	8f\J	8f\J	.	.	.	.	8b-\J	.	8dd\J	.
4A\	sa-	.	4c\	sa-	.	4e-X\	sa-	.	4AA/	4f\	4f\	4A\	.	4A\	.	4cc\	.	4ee-\	.
4B-\	-ba-	.	4B-\	-ba-	.	4d\	-ba-	.	4BB-/	4f\	4f\	4B-\	.	4B-\	.	4b-\	.	4dd\	.
=12	=12	=12	=12	=12	=12	=12	=12	=12	=12	=12	=12	=12	=12	=12	=12	=12	=12	=12	=12
!	!	!	!	!	!	!LO:SIC:o=1B-;:v	!	!	!	!	!	!	!	!	!	!	!	!	!
1F;	-oth	.	1A;	-oth	.	1c	-oth	.	1F;	1f;	1f;	1F;	.	1A;	.	1a;	.	1cc;	.
==;;	==	==	==;;	==	==	==;;	==	==	==;;	==;;	==;;	==;;	==	==;;	==	==;;	==	==;;	==
*-	*-	*-	*-	*-	*-	*-	*-	*-	*-	*-	*-	*-	*-	*-	*-	*-	*-	*-	*-
!!!system-decoration: [(g1)][(g2)][(g3)]
!!!ENC: Anna Matuszewska
!!!END: 2020-12-28
!!!ENC: Andrzej Kubiczek
!!!END: 2020-07-01
